img/buy-img-1.svg

<svg width="258" height="57" viewBox="0 0 258 57" fill="none" xmlns="http://www.w3.org/2000/svg">
<path fill-rule="evenodd" clip-rule="evenodd" d="M68 41.972V18.5018H87.8085V41.972H82.9699V22.9879H72.8373V41.972H68ZM101.962 28.4474H99.2158C96.928 28.4474 95.7834 29.2329 95.7834 30.7696C95.7834 32.2756 96.8961 33.028 99.1189 33.028C100.1 33.028 101.047 32.9666 101.962 32.8095V28.4474ZM106.44 24.8708V41.9707H101.962V36.0375C101.094 36.1897 100.175 36.3898 99.0653 36.4205L95.3585 41.9707H90.3247L94.7524 35.8166C92.4301 34.8752 91.2077 33.2489 91.2077 30.707C91.2077 27.2237 93.8541 24.8708 99.0857 24.8708H106.44ZM136.71 26.3142C138.081 27.6005 138.768 29.3581 138.768 31.6484V41.9707H134.16V32.4634C134.16 29.8601 132.722 28.4793 130.596 28.4793C128.274 28.4793 126.674 30.0798 126.674 32.5898V41.972H122.065V32.4965C122.065 29.9546 120.659 28.4793 118.469 28.4793C116.215 28.4793 114.58 30.0798 114.58 32.6217V41.972H109.971V24.8708H114.482V27.3182C115.495 25.5299 117.586 24.37 119.907 24.4007C122.13 24.4007 124.19 25.4366 125.138 27.4127C126.445 25.5299 128.863 24.4007 131.511 24.4007C133.637 24.4007 135.368 25.0254 136.71 26.3142ZM174.857 36.9188C175.771 35.9774 176.229 34.8175 176.229 33.4379C176.229 32.0559 175.771 30.896 174.857 29.9534C173.942 29.0132 172.764 28.5419 171.294 28.5419C169.856 28.5419 168.678 29.0132 167.765 29.9534C166.848 30.896 166.39 32.0559 166.39 33.4379C166.39 34.8175 166.85 35.9786 167.765 36.92C168.679 37.8614 169.856 38.3315 171.294 38.3315C172.764 38.3315 173.942 37.8602 174.857 36.9188ZM178.387 27.0359C180.054 28.7616 180.872 30.896 180.872 33.406C180.872 35.916 180.022 38.0492 178.354 39.7762C176.688 41.5007 174.596 42.3782 172.077 42.3782C169.889 42.3782 167.868 41.4601 166.489 39.8351V49H161.88V24.8708H166.455V27.1144C167.919 25.3617 169.856 24.4326 172.111 24.4326C174.628 24.4326 176.719 25.3102 178.387 27.0359ZM192.084 38.3009C193.489 38.3009 194.633 37.8295 195.58 36.8881C196.529 35.916 197.019 34.7549 197.019 33.406C197.019 32.0559 196.529 30.896 195.581 29.9546C194.633 29.0132 193.489 28.5431 192.084 28.5431C190.678 28.5431 189.501 29.0132 188.553 29.9546C187.606 30.896 187.148 32.0571 187.148 33.406C187.148 34.7549 187.606 35.916 188.553 36.8881C189.501 37.8295 190.678 38.3009 192.084 38.3009ZM185.219 27.0359C187.018 25.2783 189.306 24.4007 192.084 24.4007C194.862 24.4007 197.149 25.2783 198.948 27.0359C200.745 28.7616 201.628 30.896 201.628 33.406C201.628 35.9467 200.745 38.0812 198.948 39.8069C197.149 41.5313 194.862 42.4114 192.084 42.4114C189.306 42.4114 187.018 41.5313 185.219 39.8069C183.421 38.0812 182.539 35.9479 182.539 33.406C182.539 30.896 183.421 28.7616 185.219 27.0359ZM214.605 24.8708H219.215V41.972H214.605V36.2155C213.256 36.9556 211.795 37.3275 210.649 37.3275C208.526 37.3275 206.957 36.9507 205.55 36.0412C204.147 35.0691 203.362 33.2489 203.362 30.6125V24.8708H207.938V30.2995C207.938 32.3075 209.016 33.3115 211.174 33.3115C212.383 33.3115 213.414 33.1495 214.606 32.6917L214.605 24.8708ZM234.448 41.972L227.355 34.075V41.972H222.746V24.845H227.355V31.63L233.826 24.8708H239.645L231.702 32.7911L240.103 41.972H234.448Z" fill="#EB2316"/>
<path fill-rule="evenodd" clip-rule="evenodd" d="M252.248 29.9229C251.3 28.9495 250.122 28.4794 248.684 28.4794C247.214 28.4794 246.036 28.9495 245.088 29.9229C244.173 30.8962 243.715 32.0561 243.715 33.405C243.715 34.7858 244.173 35.9469 245.121 36.9202C246.07 37.8923 247.246 38.3624 248.684 38.3624C250.122 38.3624 251.3 37.8923 252.248 36.9202C253.195 35.9469 253.686 34.7858 253.686 33.405C253.686 32.0561 253.195 30.8962 252.248 29.9229ZM253.621 24.8709H258V41.9709H253.621V39.7125C252.09 41.4947 250.188 42.3796 247.932 42.3796C245.383 42.3796 243.258 41.5327 241.591 39.807C239.924 38.0813 239.108 35.9162 239.108 33.3436C239.108 30.7697 239.958 28.6365 241.624 26.9734C243.292 25.2796 245.416 24.4327 247.932 24.4327C250.155 24.4327 252.116 25.4024 253.621 27.1134V24.8709ZM151.519 20.5726C151.519 19.0985 152.728 18 154.297 18C155.833 18 157.011 19.1611 157.011 20.5726C157.011 22.1105 155.833 23.2397 154.297 23.2397C152.728 23.2397 151.519 22.1105 151.519 20.5726ZM145.832 31.6805H154.886C154.461 29.4515 152.793 28.1039 150.441 28.1039C148.118 28.1039 146.387 29.4528 145.832 31.6805ZM147.171 18C148.708 18 149.917 19.1611 149.917 20.5726C149.917 22.1105 148.741 23.2397 147.171 23.2397C145.602 23.2397 144.426 22.1105 144.426 20.5726C144.426 19.1611 145.635 18 147.171 18ZM159.2 34.9748H145.832C146.485 37.3903 148.218 38.614 151.029 38.614C152.957 38.614 155.104 37.9205 156.732 36.6809L158.588 39.483C156.338 41.5045 153.775 42.3477 150.832 42.3477C147.693 42.3477 145.307 41.4701 143.641 39.7444C141.974 38.0187 141.156 35.8843 141.156 33.4062C141.156 30.8017 142.006 28.6685 143.739 26.9747C145.472 25.2796 147.695 24.4315 150.441 24.4315C153.023 24.4315 155.18 25.2158 156.846 26.7537C158.514 28.2917 159.364 30.3623 159.364 33.0281C159.364 33.6247 159.3 34.285 159.2 34.9748Z" fill="#EB2316"/>
<path fill-rule="evenodd" clip-rule="evenodd" d="M30 0C13.4576 0 0 12.7848 0 28.5C0 44.2152 13.4576 57 30 57C46.5411 57 60 44.2152 60 28.5C60 12.7848 46.5411 0 30 0Z" fill="white"/>
<path fill-rule="evenodd" clip-rule="evenodd" d="M46 8C43.651 13.7944 38.3033 15 30.5569 15C29.7255 15 28.902 14.9874 28.1072 14.9761C27.3386 14.9661 26.6118 14.9547 25.8993 14.9547C25.2667 14.9547 24.6288 14.9623 24 14.9887C25.085 12.4265 26.817 10.6853 29.2824 9.62931C32.719 8.15841 37.1869 8.14332 41.1294 8.132C42.8471 8.12572 44.4915 8.11943 46 8Z" fill="#008F32"/>
<path fill-rule="evenodd" clip-rule="evenodd" d="M48.1256 10.336C44.7129 17.3491 37.107 18.0516 30.5873 18.0516C29.1557 18.0516 27.7845 18.0189 26.5147 18.0116L24.8726 24.0703C33.2822 17.6022 44.4035 24.0145 43.2146 33.7747C42.4134 40.3481 37.446 44.6468 32.1909 45.8823C26.4659 47.2292 20.1234 45.2137 17.2795 39.7098C16.9778 39.1284 16.4527 37.9632 16.2524 37.3406L22.2894 35.8774C22.3959 36.2057 22.577 36.523 22.767 36.8125C26.8087 42.962 34.9988 39.8866 35.9233 33.507C36.8644 27.0172 27.2119 23.5603 22.8132 31.1451L17.4593 28.9927L17.3668 28.954L19.9488 19.1756C20.108 18.4804 20.6447 16.5388 20.7371 16.2202C23.6555 6.09666 33.0961 5.93677 40.6686 5.91013C37.5371 4.68072 34.1039 4 30.5 4C15.8634 4 4 15.1919 4 29C4 42.8081 15.8634 54 30.5 54C45.1366 54 57 42.8081 57 29C57 21.5775 53.5694 14.9145 48.1256 10.336Z" fill="#EB2316"/>
</svg>

<svg width="258" height="57" viewBox="0 0 258 57" fill="none" xmlns="http://www.w3.org/2000/svg"><path fill-rule="evenodd" clip-rule="evenodd" d="M68 41.972v-23.47h19.808v23.47H82.97V22.988H72.837v18.984H68zm33.962-13.525h-2.746c-2.288 0-3.433.786-3.433 2.323 0 1.506 1.113 2.258 3.336 2.258.981 0 1.928-.061 2.843-.218v-4.363zm4.478-3.576v17.1h-4.478v-5.933c-.868.152-1.787.352-2.897.383l-3.706 5.55h-5.034l4.427-6.154c-2.322-.942-3.544-2.568-3.544-5.11 0-3.483 2.646-5.836 7.878-5.836h7.354zm30.27 1.443c1.371 1.287 2.058 3.044 2.058 5.334v10.323h-4.608v-9.508c0-2.603-1.438-3.984-3.564-3.984-2.322 0-3.922 1.6-3.922 4.11v9.383h-4.609v-9.476c0-2.541-1.406-4.017-3.596-4.017-2.254 0-3.889 1.6-3.889 4.143v9.35h-4.609V24.871h4.511v2.447c1.013-1.788 3.104-2.948 5.425-2.917 2.223 0 4.283 1.036 5.231 3.012 1.307-1.883 3.725-3.012 6.373-3.012 2.126 0 3.857.624 5.199 1.913zm38.147 10.605c.914-.942 1.372-2.101 1.372-3.481 0-1.382-.458-2.542-1.372-3.485-.915-.94-2.093-1.411-3.563-1.411-1.438 0-2.616.471-3.529 1.411-.917.943-1.375 2.103-1.375 3.485 0 1.38.46 2.54 1.375 3.482.914.941 2.091 1.411 3.529 1.411 1.47 0 2.648-.47 3.563-1.412zm3.53-9.883c1.667 1.726 2.485 3.86 2.485 6.37 0 2.51-.85 4.643-2.518 6.37-1.666 1.725-3.758 2.602-6.277 2.602-2.188 0-4.209-.918-5.588-2.543V49h-4.609V24.87h4.575v2.244c1.464-1.752 3.401-2.681 5.656-2.681 2.517 0 4.608.877 6.276 2.603zM192.084 38.3c1.405 0 2.549-.471 3.496-1.413.949-.972 1.439-2.133 1.439-3.482 0-1.35-.49-2.51-1.438-3.451-.948-.942-2.092-1.412-3.497-1.412-1.406 0-2.583.47-3.531 1.412-.947.941-1.405 2.102-1.405 3.451 0 1.349.458 2.51 1.405 3.482.948.942 2.125 1.413 3.531 1.413zm-6.865-11.265c1.799-1.758 4.087-2.635 6.865-2.635 2.778 0 5.065.877 6.864 2.635 1.797 1.726 2.68 3.86 2.68 6.37 0 2.54-.883 4.675-2.68 6.4-1.799 1.725-4.086 2.605-6.864 2.605-2.778 0-5.066-.88-6.865-2.604-1.798-1.726-2.68-3.86-2.68-6.401 0-2.51.882-4.644 2.68-6.37zm29.386-2.165h4.61v17.101h-4.61v-5.757c-1.349.74-2.81 1.112-3.956 1.112-2.123 0-3.692-.376-5.099-1.286-1.403-.972-2.188-2.792-2.188-5.428V24.87h4.576v5.428c0 2.008 1.078 3.013 3.236 3.013 1.209 0 2.24-.162 3.432-.62l-.001-7.821zm19.843 17.101l-7.093-7.897v7.897h-4.609V24.845h4.609v6.785l6.471-6.76h5.819l-7.943 7.921 8.401 9.181h-5.655z" fill="#EB2316"/><path fill-rule="evenodd" clip-rule="evenodd" d="M252.248 29.923c-.948-.973-2.126-1.444-3.564-1.444-1.47 0-2.648.47-3.596 1.444-.915.973-1.373 2.133-1.373 3.482 0 1.38.458 2.542 1.406 3.515.949.972 2.125 1.442 3.563 1.442 1.438 0 2.616-.47 3.564-1.442.947-.973 1.438-2.134 1.438-3.515 0-1.349-.491-2.509-1.438-3.482zm1.373-5.052H258v17.1h-4.379v-2.258c-1.531 1.782-3.433 2.667-5.689 2.667-2.549 0-4.674-.847-6.341-2.573-1.667-1.726-2.483-3.89-2.483-6.463 0-2.574.85-4.707 2.516-6.37 1.668-1.694 3.792-2.541 6.308-2.541 2.223 0 4.184.97 5.689 2.68v-2.242zm-102.102-4.298c0-1.474 1.209-2.573 2.778-2.573 1.536 0 2.714 1.161 2.714 2.573 0 1.537-1.178 2.667-2.714 2.667-1.569 0-2.778-1.13-2.778-2.667zm-5.687 11.107h9.054c-.425-2.229-2.093-3.576-4.445-3.576-2.323 0-4.054 1.349-4.609 3.576zM147.171 18c1.537 0 2.746 1.161 2.746 2.573 0 1.537-1.176 2.667-2.746 2.667-1.569 0-2.745-1.13-2.745-2.667 0-1.412 1.209-2.573 2.745-2.573zM159.2 34.975h-13.368c.653 2.415 2.386 3.639 5.197 3.639 1.928 0 4.075-.694 5.703-1.933l1.856 2.802c-2.25 2.022-4.813 2.865-7.756 2.865-3.139 0-5.525-.878-7.191-2.604-1.667-1.725-2.485-3.86-2.485-6.338 0-2.604.85-4.737 2.583-6.431 1.733-1.695 3.956-2.544 6.702-2.544 2.582 0 4.739.785 6.405 2.323 1.668 1.538 2.518 3.608 2.518 6.274 0 .597-.064 1.257-.164 1.947z" fill="#EB2316"/><path fill-rule="evenodd" clip-rule="evenodd" d="M30 0C13.458 0 0 12.785 0 28.5S13.458 57 30 57c16.541 0 30-12.785 30-28.5S46.541 0 30 0z" fill="#fff"/><path fill-rule="evenodd" clip-rule="evenodd" d="M46 8c-2.349 5.794-7.697 7-15.443 7-.831 0-1.655-.013-2.45-.024-.768-.01-1.495-.021-2.208-.021-.632 0-1.27.007-1.899.034 1.085-2.563 2.817-4.304 5.282-5.36 3.437-1.47 7.905-1.486 11.847-1.497C42.847 8.126 44.492 8.119 46 8z" fill="#008F32"/><path fill-rule="evenodd" clip-rule="evenodd" d="M48.126 10.336c-3.413 7.013-11.019 7.716-17.539 7.716-1.431 0-2.802-.033-4.072-.04l-1.642 6.058c8.41-6.468 19.53-.055 18.342 9.705-.802 6.573-5.769 10.872-11.024 12.107-5.725 1.347-12.068-.668-14.912-6.172-.301-.582-.826-1.747-1.027-2.37l6.037-1.463c.107.329.288.646.478.935 4.042 6.15 12.232 3.075 13.156-3.305.941-6.49-8.711-9.947-13.11-2.362l-5.354-2.152-.092-.039 2.582-9.778c.159-.696.696-2.637.788-2.956C23.656 6.097 33.097 5.937 40.67 5.91A27.779 27.779 0 0030.5 4C15.863 4 4 15.192 4 29s11.863 25 26.5 25S57 42.808 57 29c0-7.422-3.43-14.085-8.874-18.664z" fill="#EB2316"/></svg>
